src/epub/images/titlepage.svg

<?xml version="1.0" encoding="utf-8"?>
<svg xmlns="http://www.w3.org/2000/svg" xmlns:svg="http://www.w3.org/2000/svg" version="1.1" viewBox="0 0 1400 340">
	<title>The titlepage for the Standard Ebooks edition of Three Men in a Boat, by Jerome K. Jerome</title>
	<g>
		<path d="m 119.10745,68.245613 18.33918,0 0,61.754387 17.59064,0 0,-61.754387 18.33918,0 0,-15.438597 -54.269,0 0,15.438597 z"/>
		<path d="m 202.30189,99.029239 24.88889,0 0,30.970761 17.59064,0 0,-77.192984 -17.59064,0 0,30.783626 -24.88889,0 0,-30.783626 -17.59064,0 0,77.192984 17.59064,0 0,-30.970761 z"/>
		<path d="m 260.98318,52.807016 0,77.192984 17.59065,0 0,-30.502925 L 302.15277,130 l 22.36258,0 -26.5731,-31.906433 c 9.45029,-2.994152 15.81286,-10.760234 15.81286,-22.362574 0,-15.157895 -10.8538,-22.923977 -25.16959,-22.923977 l -27.60234,0 z m 17.59065,34.245615 0,-20.210527 2.05848,0 c 6.64327,0 14.59649,0.467836 14.59649,10.105263 0,9.637428 -7.95322,10.105264 -14.59649,10.105264 l -2.05848,0 z"/>
		<path d="m 377.21564,52.807016 -44.16375,0 0,77.192984 44.16375,0 0,-15.4386 -26.5731,0 0,-15.532161 25.45029,0 0,-15.438597 -25.45029,0 0,-15.345029 26.5731,0 0,-15.438597 z"/>
		<path d="m 436.49197,52.807016 -44.16374,0 0,77.192984 44.16374,0 0,-15.4386 -26.5731,0 0,-15.532161 25.4503,0 0,-15.438597 -25.4503,0 0,-15.345029 26.5731,0 0,-15.438597 z"/>
		<path d="m 546.00221,130 17.59064,0 -6.92397,-77.192984 -18.71345,0 -17.12281,44.538013 -17.12281,-44.538013 -18.71345,0 L 478.07238,130 l 17.59065,0 3.64912,-45.754387 0.46784,0 15.81286,45.286547 10.47954,0 15.81286,-45.286547 0.46784,0 L 546.00221,130 Z"/>
		<path d="m 619.80337,52.807016 -44.16374,0 0,77.192984 44.16374,0 0,-15.4386 -26.5731,0 0,-15.532161 25.4503,0 0,-15.438597 -25.4503,0 0,-15.345029 26.5731,0 0,-15.438597 z"/>
		<path d="m 652.50658,82.093566 0.18714,0 L 683.38377,130 l 17.59065,0 0,-77.192984 -17.59065,0 0,47.906434 -0.18713,0 -30.69006,-47.906434 -17.59064,0 0,77.192984 17.59064,0 0,-47.906434 z"/>
		<path d="m 765.39403,52.807016 -17.59064,0 0,77.192984 17.59064,0 0,-77.192984 z"/>
		<path d="m 799.2683,82.093566 0.18713,0 L 830.14549,130 l 17.59065,0 0,-77.192984 -17.59065,0 0,47.906434 -0.18713,0 -30.69006,-47.906434 -17.59064,0 0,77.192984 17.59064,0 0,-47.906434 z"/>
		<path d="m 933.76972,52.807016 -16.2807,0 L 886.33113,130 l 18.90058,0 5.70761,-15.4386 29.38011,0 5.70761,15.4386 18.90058,0 -31.1579,-77.192984 z m 0.56141,46.31579 -17.40351,0 8.60819,-22.45614 0.18713,0 8.60819,22.45614 z"/>
		<path d="m 1003.4321,52.807016 0,77.192984 29.2865,0 c 16,0 25.2632,-8.79532 25.2632,-21.52047 0,-12.444443 -6.8305,-17.777776 -16.4679,-19.461987 6.5497,-3.368421 9.6374,-9.450292 9.6374,-16.561404 0,-14.690058 -10.4795,-19.649123 -23.766,-19.649123 l -23.9532,0 z m 17.5906,30.222223 0,-16.654971 1.4035,0 c 7.6725,0 11.6959,2.339181 11.6959,7.859649 0,6.456141 -4.1169,8.795322 -11.6959,8.795322 l -1.4035,0 z m 0,33.403511 0,-18.245616 5.5205,0 c 8.3274,0 12.9122,2.526316 12.9122,9.637426 0,6.08187 -4.5848,8.60819 -12.9122,8.60819 l -5.5205,0 z"/>
		<path d="m 1067.2873,91.356724 c 0,22.549706 16.0936,40.046786 38.924,40.046786 22.1754,0 38.8304,-17.49708 38.8304,-40.046786 0,-22.549708 -17.4035,-39.953217 -38.8304,-39.953217 -21.2398,0 -38.924,17.403509 -38.924,39.953217 z m 18.9942,0 c 0,-11.508772 6.3625,-23.017544 19.9298,-23.017544 13.6608,0 19.8363,11.508772 19.8363,23.017544 0,11.508776 -5.8012,23.017546 -19.8363,23.017546 -14.4094,0 -19.9298,-11.50877 -19.9298,-23.017546 z"/>
		<path d="m 1197.0081,52.807016 -16.2807,0 L 1149.5695,130 l 18.9006,0 5.7076,-15.4386 29.3801,0 5.7076,15.4386 18.9006,0 -31.1579,-77.192984 z m 0.5614,46.31579 -17.4035,0 8.6081,-22.45614 0.1872,0 8.6082,22.45614 z"/>
		<path d="m 1226.6514,68.245613 18.3392,0 0,61.754387 17.5906,0 0,-61.754387 18.3392,0 0,-15.438597 -54.269,0 0,15.438597 z"/>
	</g>
	<g>
		<path d="m 340.34101,232.10526 -13.19298,0 0,38.17544 c 0,5.82456 -2.87719,8.14035 -6.66667,8.14035 -3.36842,0 -7.50877,-3.92982 -7.50877,-3.92982 l -4.21053,11.01754 c 0,0 5.26316,5.54386 13.54386,5.54386 11.57895,0 18.03509,-6.03509 18.03509,-17.40351 l 0,-41.54386 z"/>
		<path d="m 386.16557,232.10526 -33.1228,0 0,57.89474 33.1228,0 0,-11.57895 -19.92982,0 0,-11.64912 19.08772,0 0,-11.57895 -19.08772,0 0,-11.50877 19.92982,0 0,-11.57895 z"/>
		<path d="m 398.75,232.10526 0,57.89474 13.19299,0 0,-22.87719 L 429.6272,290 l 16.77193,0 -19.92983,-23.92982 c 7.08772,-2.24562 11.85965,-8.07018 11.85965,-16.77193 0,-11.36842 -8.14035,-17.19299 -18.87719,-17.19299 l -20.70176,0 z m 13.19299,25.68421 0,-15.15789 1.54386,0 c 4.98245,0 10.94736,0.35088 10.94736,7.57895 0,7.22807 -5.96491,7.57894 -10.94736,7.57894 l -1.54386,0 z"/>
		<path d="m 451.45504,261.01754 c 0,16.91228 12.07018,30.03509 29.19298,30.03509 16.63158,0 29.12281,-13.12281 29.12281,-30.03509 0,-16.91228 -13.05263,-29.96491 -29.12281,-29.96491 -15.92982,0 -29.19298,13.05263 -29.19298,29.96491 z m 14.24562,0 c 0,-8.63157 4.77193,-17.26315 14.94736,-17.26315 10.24562,0 14.8772,8.63158 14.8772,17.26315 0,8.63158 -4.35088,17.26316 -14.8772,17.26316 -10.80701,0 -14.94736,-8.63158 -14.94736,-17.26316 z"/>
		<path d="m 568.45175,290 13.19299,0 -5.19299,-57.89474 -14.03508,0 -12.84211,33.40351 -12.8421,-33.40351 -14.03509,0 -5.19298,57.89474 13.19298,0 2.73684,-34.31579 0.35088,0 11.85965,33.96491 7.85965,0 11.85965,-33.96491 0.35087,0 L 568.45175,290 Z"/>
		<path d="m 625.05264,232.10526 -33.12281,0 0,57.89474 33.12281,0 0,-11.57895 -19.92983,0 0,-11.64912 19.08772,0 0,-11.57895 -19.08772,0 0,-11.50877 19.92983,0 0,-11.57895 z"/>
		<path d="m 714.5274,290 -26.94737,-30.45614 23.29824,-27.4386 -16,0 -19.85965,23.64913 0,-23.64913 -13.19298,0 0,57.89474 13.19298,0 0,-24.5614 21.33334,24.5614 18.17544,0 z"/>
		<path d="m 730.06139,274.98246 c -4.42105,0 -8,3.57894 -8,8.07017 0,4.42105 3.57895,8 8,8 4.49123,0 8.07018,-3.57895 8.07018,-8 0,-4.49123 -3.57895,-8.07017 -8.07018,-8.07017 z"/>
		<path d="m 800.97697,232.10526 -13.19298,0 0,38.17544 c 0,5.82456 -2.8772,8.14035 -6.66667,8.14035 -3.36842,0 -7.50877,-3.92982 -7.50877,-3.92982 l -4.21053,11.01754 c 0,0 5.26316,5.54386 13.54386,5.54386 11.57895,0 18.03509,-6.03509 18.03509,-17.40351 l 0,-41.54386 z"/>
		<path d="m 846.80154,232.10526 -33.12281,0 0,57.89474 33.12281,0 0,-11.57895 -19.92983,0 0,-11.64912 19.08772,0 0,-11.57895 -19.08772,0 0,-11.50877 19.92983,0 0,-11.57895 z"/>
		<path d="m 859.38594,232.10526 0,57.89474 13.19299,0 0,-22.87719 17.68421,22.87719 16.77193,0 -19.92983,-23.92982 c 7.08772,-2.24562 11.85965,-8.07018 11.85965,-16.77193 0,-11.36842 -8.14035,-17.19299 -18.87719,-17.19299 l -20.70176,0 z m 13.19299,25.68421 0,-15.15789 1.54386,0 c 4.98245,0 10.94736,0.35088 10.94736,7.57895 0,7.22807 -5.96491,7.57894 -10.94736,7.57894 l -1.54386,0 z"/>
		<path d="m 912.09103,261.01754 c 0,16.91228 12.07017,30.03509 29.19298,30.03509 16.63158,0 29.12281,-13.12281 29.12281,-30.03509 0,-16.91228 -13.05263,-29.96491 -29.12281,-29.96491 -15.92982,0 -29.19298,13.05263 -29.19298,29.96491 z m 14.24561,0 c 0,-8.63157 4.77193,-17.26315 14.94737,-17.26315 10.24561,0 14.87719,8.63158 14.87719,17.26315 0,8.63158 -4.35087,17.26316 -14.87719,17.26316 -10.80702,0 -14.94737,-8.63158 -14.94737,-17.26316 z"/>
		<path d="m 1029.0877,290 13.193,0 -5.193,-57.89474 -14.0351,0 -12.8421,33.40351 -12.8421,-33.40351 -14.03509,0 -5.19298,57.89474 13.19298,0 2.73684,-34.31579 0.35088,0 11.85967,33.96491 7.8596,0 11.8597,-33.96491 0.3509,0 2.7368,34.31579 z"/>
		<path d="m 1085.6886,232.10526 -33.1228,0 0,57.89474 33.1228,0 0,-11.57895 -19.9299,0 0,-11.64912 19.0878,0 0,-11.57895 -19.0878,0 0,-11.50877 19.9299,0 0,-11.57895 z"/>
	</g>
</svg>

<?xml version="1.0" encoding="utf-8"?>
<svg xmlns="http://www.w3.org/2000/svg" xmlns:svg="http://www.w3.org/2000/svg" version="1.1" viewBox="0 0 1400 340">
	<title>The titlepage for the Standard Ebooks edition of Three Men in a Boat, by Jerome K. Jerome</title>
	<g aria-label="THREE MEN IN A BOAT">
		<path d="m 119.10745,68.245613 h 18.33918 V 130 h 17.59064 V 68.245613 h 18.33918 V 52.807016 h -54.269 z"/>
		<path d="m 202.30189,99.029239 h 24.88889 V 130 h 17.59064 V 52.807016 H 227.19078 V 83.590642 H 202.30189 V 52.807016 H 184.71125 V 130 h 17.59064 z"/>
		<path d="M 260.98318,52.807016 V 130 h 17.59065 V 99.497075 L 302.15277,130 h 22.36258 l -26.5731,-31.906433 c 9.45029,-2.994152 15.81286,-10.760234 15.81286,-22.362574 0,-15.157895 -10.8538,-22.923977 -25.16959,-22.923977 z m 17.59065,34.245615 V 66.842104 h 2.05848 c 6.64327,0 14.59649,0.467836 14.59649,10.105263 0,9.637428 -7.95322,10.105264 -14.59649,10.105264 z"/>
		<path d="M 377.21564,52.807016 H 333.05189 V 130 h 44.16375 v -15.4386 h -26.5731 V 99.029239 h 25.45029 V 83.590642 H 350.64254 V 68.245613 h 26.5731 z"/>
		<path d="M 436.49197,52.807016 H 392.32823 V 130 h 44.16374 v -15.4386 h -26.5731 V 99.029239 h 25.4503 V 83.590642 h -25.4503 V 68.245613 h 26.5731 z"/>
		<path d="m 546.00221,130 h 17.59064 L 556.66888,52.807016 H 537.95543 L 520.83262,97.345029 503.70981,52.807016 H 484.99636 L 478.07238,130 h 17.59065 l 3.64912,-45.754387 h 0.46784 l 15.81286,45.286547 h 10.47954 l 15.81286,-45.286547 h 0.46784 z"/>
		<path d="M 619.80337,52.807016 H 575.63963 V 130 h 44.16374 v -15.4386 h -26.5731 V 99.029239 h 25.4503 V 83.590642 h -25.4503 V 68.245613 h 26.5731 z"/>
		<path d="m 652.50658,82.093566 h 0.18714 L 683.38377,130 h 17.59065 V 52.807016 h -17.59065 v 47.906434 h -0.18713 L 652.50658,52.807016 H 634.91594 V 130 h 17.59064 z"/>
		<path d="M 765.39403,52.807016 H 747.80339 V 130 h 17.59064 z"/>
		<path d="m 799.2683,82.093566 h 0.18713 L 830.14549,130 h 17.59065 V 52.807016 h -17.59065 v 47.906434 h -0.18713 L 799.2683,52.807016 H 781.67766 V 130 h 17.59064 z"/>
		<path d="m 933.76972,52.807016 h -16.2807 L 886.33113,130 h 18.90058 l 5.70761,-15.4386 h 29.38011 L 946.02704,130 h 18.90058 z m 0.56141,46.31579 h -17.40351 l 8.60819,-22.45614 h 0.18713 z"/>
		<path d="M 1003.4321,52.807016 V 130 h 29.2865 c 16,0 25.2632,-8.79532 25.2632,-21.52047 0,-12.444443 -6.8305,-17.777776 -16.4679,-19.461987 6.5497,-3.368421 9.6374,-9.450292 9.6374,-16.561404 0,-14.690058 -10.4795,-19.649123 -23.766,-19.649123 z m 17.5906,30.222223 V 66.374268 h 1.4035 c 7.6725,0 11.6959,2.339181 11.6959,7.859649 0,6.456141 -4.1169,8.795322 -11.6959,8.795322 z m 0,33.403511 V 98.187134 h 5.5205 c 8.3274,0 12.9122,2.526316 12.9122,9.637426 0,6.08187 -4.5848,8.60819 -12.9122,8.60819 z"/>
		<path d="m 1067.2873,91.356724 c 0,22.549706 16.0936,40.046786 38.924,40.046786 22.1754,0 38.8304,-17.49708 38.8304,-40.046786 0,-22.549708 -17.4035,-39.953217 -38.8304,-39.953217 -21.2398,0 -38.924,17.403509 -38.924,39.953217 z m 18.9942,0 c 0,-11.508772 6.3625,-23.017544 19.9298,-23.017544 13.6608,0 19.8363,11.508772 19.8363,23.017544 0,11.508776 -5.8012,23.017546 -19.8363,23.017546 -14.4094,0 -19.9298,-11.50877 -19.9298,-23.017546 z"/>
		<path d="m 1197.0081,52.807016 h -16.2807 L 1149.5695,130 h 18.9006 l 5.7076,-15.4386 h 29.3801 L 1209.2654,130 h 18.9006 z m 0.5614,46.31579 h -17.4035 l 8.6081,-22.45614 h 0.1872 z"/>
		<path d="m 1226.6514,68.245613 h 18.3392 V 130 h 17.5906 V 68.245613 h 18.3392 V 52.807016 h -54.269 z"/>
	</g>
	<g aria-label="JEROME K. JEROME">
		<path d="m 340.34101,232.10526 h -13.19298 v 38.17544 c 0,5.82456 -2.87719,8.14035 -6.66667,8.14035 -3.36842,0 -7.50877,-3.92982 -7.50877,-3.92982 l -4.21053,11.01754 c 0,0 5.26316,5.54386 13.54386,5.54386 11.57895,0 18.03509,-6.03509 18.03509,-17.40351 z"/>
		<path d="m 386.16557,232.10526 h -33.1228 V 290 h 33.1228 v -11.57895 h -19.92982 v -11.64912 h 19.08772 v -11.57895 h -19.08772 v -11.50877 h 19.92982 z"/>
		<path d="M 398.75,232.10526 V 290 h 13.19299 V 267.12281 L 429.6272,290 h 16.77193 L 426.4693,266.07018 c 7.08772,-2.24562 11.85965,-8.07018 11.85965,-16.77193 0,-11.36842 -8.14035,-17.19299 -18.87719,-17.19299 z m 13.19299,25.68421 v -15.15789 h 1.54386 c 4.98245,0 10.94736,0.35088 10.94736,7.57895 0,7.22807 -5.96491,7.57894 -10.94736,7.57894 z"/>
		<path d="m 451.45504,261.01754 c 0,16.91228 12.07018,30.03509 29.19298,30.03509 16.63158,0 29.12281,-13.12281 29.12281,-30.03509 0,-16.91228 -13.05263,-29.96491 -29.12281,-29.96491 -15.92982,0 -29.19298,13.05263 -29.19298,29.96491 z m 14.24562,0 c 0,-8.63157 4.77193,-17.26315 14.94736,-17.26315 10.24562,0 14.8772,8.63158 14.8772,17.26315 0,8.63158 -4.35088,17.26316 -14.8772,17.26316 -10.80701,0 -14.94736,-8.63158 -14.94736,-17.26316 z"/>
		<path d="m 568.45175,290 h 13.19299 l -5.19299,-57.89474 h -14.03508 l -12.84211,33.40351 -12.8421,-33.40351 H 522.69737 L 517.50439,290 h 13.19298 l 2.73684,-34.31579 h 0.35088 l 11.85965,33.96491 h 7.85965 l 11.85965,-33.96491 h 0.35087 z"/>
		<path d="M 625.05264,232.10526 H 591.92983 V 290 h 33.12281 v -11.57895 h -19.92983 v -11.64912 h 19.08772 v -11.57895 h -19.08772 v -11.50877 h 19.92983 z"/>
		<path d="m 714.5274,290 -26.94737,-30.45614 23.29824,-27.4386 h -16 l -19.85965,23.64913 V 232.10526 H 661.82564 V 290 h 13.19298 V 265.4386 L 696.35196,290 Z"/>
		<path d="m 730.06139,274.98246 c -4.42105,0 -8,3.57894 -8,8.07017 0,4.42105 3.57895,8 8,8 4.49123,0 8.07018,-3.57895 8.07018,-8 0,-4.49123 -3.57895,-8.07017 -8.07018,-8.07017 z"/>
		<path d="m 800.97697,232.10526 h -13.19298 v 38.17544 c 0,5.82456 -2.8772,8.14035 -6.66667,8.14035 -3.36842,0 -7.50877,-3.92982 -7.50877,-3.92982 l -4.21053,11.01754 c 0,0 5.26316,5.54386 13.54386,5.54386 11.57895,0 18.03509,-6.03509 18.03509,-17.40351 z"/>
		<path d="M 846.80154,232.10526 H 813.67873 V 290 h 33.12281 v -11.57895 h -19.92983 v -11.64912 h 19.08772 v -11.57895 h -19.08772 v -11.50877 h 19.92983 z"/>
		<path d="M 859.38594,232.10526 V 290 h 13.19299 V 267.12281 L 890.26314,290 h 16.77193 l -19.92983,-23.92982 c 7.08772,-2.24562 11.85965,-8.07018 11.85965,-16.77193 0,-11.36842 -8.14035,-17.19299 -18.87719,-17.19299 z m 13.19299,25.68421 v -15.15789 h 1.54386 c 4.98245,0 10.94736,0.35088 10.94736,7.57895 0,7.22807 -5.96491,7.57894 -10.94736,7.57894 z"/>
		<path d="m 912.09103,261.01754 c 0,16.91228 12.07017,30.03509 29.19298,30.03509 16.63158,0 29.12281,-13.12281 29.12281,-30.03509 0,-16.91228 -13.05263,-29.96491 -29.12281,-29.96491 -15.92982,0 -29.19298,13.05263 -29.19298,29.96491 z m 14.24561,0 c 0,-8.63157 4.77193,-17.26315 14.94737,-17.26315 10.24561,0 14.87719,8.63158 14.87719,17.26315 0,8.63158 -4.35087,17.26316 -14.87719,17.26316 -10.80702,0 -14.94737,-8.63158 -14.94737,-17.26316 z"/>
		<path d="m 1029.0877,290 h 13.193 l -5.193,-57.89474 h -14.0351 l -12.8421,33.40351 -12.8421,-33.40351 H 983.33331 L 978.14033,290 h 13.19298 l 2.73684,-34.31579 h 0.35088 l 11.85967,33.96491 h 7.8596 L 1026,255.68421 h 0.3509 z"/>
		<path d="m 1085.6886,232.10526 h -33.1228 V 290 h 33.1228 v -11.57895 h -19.9299 v -11.64912 h 19.0878 v -11.57895 h -19.0878 v -11.50877 h 19.9299 z"/>
	</g>
</svg>
